X:1
T:Title
%%score { ( 1 3 ) | ( 2 4 ) }
L:1/8
M:4/4
K:C
V:1 treble nm="Grand Piano"
V:3 treble 
V:2 bass 
V:4 bass 
V:1
 z4 z2[Q:1/4=108] G2 | G2 G2 E2 C2 | G6 [CE]2 | [B,D]2 [CE]2 [DF]2 [EG]2 | [G,CE]6 G2 | %5
 G2 E2 D2 C2 | [CFA]6 [CG]2 | [B,DG]2 [CEG]2 [B,DG]2 [A,C^F]2 |[M:3/4] [G,B,G]6 |[M:1/4] G2 | %10
[M:4/4] B4 c4 | d6 G2 | B4 c4 | d6 G2 | e2 d2 c2 G2 | z4 z2 d2 | z4 B4 |[M:3/4] [Ec]6 |] %18
V:2
 z4 z2 G,2 | G,2 G,2 E,2 C,2 | G,6 C,2 | G,,2 G,,2 G,,2 G,,2 | C,6 G,2 | G,2 E,2 D,2 C,2 | %6
 F,6 E,2 | D,2 C,2 D,2 D,2 |[M:3/4] G,,6 |[M:1/4] G,2 |[M:4/4][K:treble] [DF]4 [CE]4 | %11
 [G,B,F]6 G,2 | [DF]4 [CE]4 | [G,B,F]6 G,2 | [CG]2 [G,B,F]2 [A,CE]2[K:bass] [E,C]2 | %15
 [F,CF]2 [D,D]2 [E,C]2 [F,A,]2 | [G,E]4 [G,,G,]4 |[M:3/4] [C,G,]6 |] %18
V:3
 x8 | x8 | x8 | G,8 | x8 | x8 | x8 | x8 |[M:3/4] x6 |[M:1/4] x2 |[M:4/4] z2 G,2 z2 G,2 | x8 | %12
 z2 G,2 z2 G,2 | x8 | x8 | A2 [FB]2 [Ec]2 AF | c4 D2 F2 |[M:3/4] x6 |] %18
V:4
 x8 | x8 | x8 | x8 | x8 | x8 | x8 | x8 |[M:3/4] x6 |[M:1/4] x2 |[M:4/4][K:treble] z4 G,2 z2 | x8 | %12
 z4 G,2 z2 | x8 | x6[K:bass] x2 | x8 | x8 |[M:3/4] x6 |] %18

